configs/network-logos/omni.svg

<svg width="93" height="24" viewBox="0 0 93 24" fill="none" xmlns="http://www.w3.org/2000/svg">
<g clip-path="url(#clip0_11311_6222)">
<path fill-rule="evenodd" clip-rule="evenodd" d="M12.0006 5.56876L15.2157 0L20.7845 3.21512L17.5694 8.78388L12.0006 5.56876ZM17.5707 8.78499H24.001V15.2152H17.5707V8.78499ZM6.42701 15.2152L3.21436 20.7797L8.78312 23.9948L11.9982 18.4261L6.43025 15.2114V8.78499H0V15.2152H6.42701ZM17.5709 15.2161L12.0021 18.4312L15.2172 24L20.786 20.7849L17.5709 15.2161ZM3.21611 3.21789L8.78487 0.00276065L12 5.57152L6.43124 8.78664L3.21611 3.21789Z" fill="#0564FF"/>
<path fill-rule="evenodd" clip-rule="evenodd" d="M31.9389 19.4245C33.721 21.4078 36.1355 22.3851 39.1823 22.3851C42.1716 22.3851 44.586 21.4078 46.4256 19.4245C48.2364 17.4699 49.1562 14.883 49.1562 11.6925C49.1562 8.53076 48.2364 5.94386 46.4256 3.93182C44.586 1.97727 42.1716 1 39.1823 1C36.1355 1 33.721 1.97727 31.9389 3.93182C30.0994 5.94386 29.1796 8.53076 29.1796 11.6925C29.1796 14.9118 30.0994 17.4699 31.9389 19.4245ZM44.1261 17.4699C42.8901 18.9071 41.2518 19.6257 39.1823 19.6257C37.1127 19.6257 35.4456 18.9071 34.2384 17.4699C32.9737 16.0615 32.3701 14.1357 32.3701 11.6925C32.3701 9.27808 32.9737 7.35228 34.2384 5.88637C35.4744 4.47794 37.1127 3.75936 39.1823 3.75936C41.223 3.75936 42.8614 4.47794 44.1261 5.88637C45.3333 7.32354 45.9657 9.24934 45.9657 11.6925C45.9657 14.1645 45.3333 16.0903 44.1261 17.4699ZM89.4562 4.99529H92.388V1.91976H89.4562V4.99529ZM89.4849 21.9251H92.3593V7.09356H89.4849V21.9251ZM85.7265 8.12833C84.8067 7.20854 83.5133 6.74865 81.9037 6.74865C79.9204 6.74865 78.3682 7.61095 77.2472 9.3068V7.09356H74.4879V21.9251H77.3622V13.5608C77.3622 12.1811 77.7359 11.1176 78.5119 10.3703C79.2593 9.65172 80.1216 9.27806 81.0988 9.27806C83.1684 9.27806 84.2319 10.3128 84.2319 12.3823V21.9251H87.1062V11.9799C87.1062 10.3128 86.6463 9.04811 85.7265 8.12833ZM67.0285 6.74865C68.6382 6.74865 69.8741 7.23728 70.7939 8.18581C71.6849 9.13434 72.1448 10.3991 72.1448 11.9799V21.9251H69.2418V12.3536C69.2418 10.3128 68.2932 9.27806 66.3962 9.27806C65.3614 9.27806 64.5279 9.68047 63.8955 10.4565C63.2344 11.2326 62.9182 12.3536 62.9182 13.7908V21.9251H60.0439V12.3536C60.0439 10.3128 59.0666 9.27806 57.1696 9.27806C56.1348 9.27806 55.3012 9.68047 54.6689 10.4565C54.0078 11.2614 53.6916 12.3536 53.6916 13.7908V21.9251H50.8173V7.09356H53.5766V9.3068C54.5827 7.61095 56.0198 6.74865 57.8594 6.74865C60.1014 6.74865 61.6248 7.69718 62.4296 9.53675C63.4643 7.69718 65.0165 6.74865 67.0285 6.74865Z" fill="black"/>
</g>
<defs>
<clipPath id="clip0_11311_6222">
<rect width="93" height="24" fill="white"/>
</clipPath>
</defs>
</svg>

<svg xmlns="http://www.w3.org/2000/svg" fill="none" viewBox="0 0 93 24">
  <g fill-rule="evenodd" clip-path="url(#omni_svg__a)" clip-rule="evenodd">
    <path fill="#0564FF" d="M12 5.569 15.217 0l5.569 3.215-3.216 5.569-5.568-3.215Zm5.57 3.216h6.431v6.43h-6.43v-6.43Zm-11.143 6.43L3.214 20.78l5.57 3.215 3.214-5.569-5.568-3.215V8.785H0v6.43h6.427Zm11.144.001-5.569 3.215L15.217 24l5.569-3.215-3.215-5.569ZM3.216 3.218 8.785.003 12 5.572 6.431 8.787l-3.215-5.57Z"/>
    <path fill="#000" d="M31.939 19.424c1.782 1.984 4.197 2.961 7.243 2.961 2.99 0 5.404-.977 7.244-2.96 1.81-1.955 2.73-4.542 2.73-7.732 0-3.162-.92-5.75-2.73-7.761C44.586 1.977 42.172 1 39.182 1c-3.047 0-5.461.977-7.243 2.932-1.84 2.012-2.76 4.599-2.76 7.76 0 3.22.92 5.778 2.76 7.732Zm12.187-1.954c-1.236 1.437-2.874 2.156-4.944 2.156s-3.736-.719-4.944-2.156c-1.264-1.409-1.868-3.334-1.868-5.777 0-2.415.604-4.34 1.868-5.807 1.236-1.408 2.875-2.127 4.944-2.127 2.041 0 3.68.719 4.944 2.127 1.207 1.438 1.84 3.363 1.84 5.807 0 2.472-.633 4.397-1.84 5.777Zm45.33-12.475h2.932V1.92h-2.932v3.075Zm.029 16.93h2.874V7.094h-2.874v14.831ZM85.727 8.128c-.92-.92-2.214-1.38-3.823-1.38-1.984 0-3.536.863-4.657 2.559V7.094h-2.76v14.831h2.875v-8.364c0-1.38.374-2.443 1.15-3.19.747-.72 1.61-1.093 2.587-1.093 2.07 0 3.133 1.035 3.133 3.104v9.543h2.874V11.98c0-1.667-.46-2.932-1.38-3.852Zm-18.699-1.38c1.61 0 2.846.49 3.766 1.438.89.948 1.35 2.213 1.35 3.794v9.945h-2.902v-9.571c0-2.041-.949-3.076-2.846-3.076-1.035 0-1.868.402-2.5 1.178-.662.777-.978 1.898-.978 3.335v8.134h-2.874v-9.571c0-2.041-.977-3.076-2.874-3.076-1.035 0-1.869.402-2.501 1.178-.661.805-.977 1.898-.977 3.335v8.134h-2.875V7.094h2.76v2.213c1.006-1.696 2.443-2.558 4.282-2.558 2.242 0 3.766.948 4.57 2.788 1.035-1.84 2.587-2.788 4.6-2.788Z"/>
  </g>
  <defs>
    <clipPath id="omni_svg__a">
      <path fill="#fff" d="M0 0h93v24H0z"/>
    </clipPath>
  </defs>
</svg>
